X: 18558
T: I Know My Love
R: waltz
M: 3/4
K: Fmajor
c4 -|c4 cd|c2 AG FE|FG AB GE|C2 DE FE|
FG AB GE|CC DE FA|c2 de fe|c2 BG FE|
(FGA) B GE|C2 DE FA|c2 de fe|c2 BG FE|
(FGA) B GE|C2 DE FA|c2 de fe|c2 BG FE|
F6 -|F6 -|F2|

